lib/components/NewIcon/assets/Timer.svg

<svg width="20" height="20" viewBox="0 0 20 20" fill="none" xmlns="http://www.w3.org/2000/svg">
<path d="M16.0418 7.56663L16.8751 6.73329L14.4918 4.40829L13.6584 5.24163C12.8002 4.70323 11.8372 4.35381 10.8334 4.21663V3.33329H12.5001V1.66663H7.50009V3.33329H9.16676V4.21663C7.6413 4.39543 6.21496 5.06408 5.10174 6.12224C3.98851 7.1804 3.24844 8.57102 2.99255 10.0855C2.73666 11.5999 2.97876 13.1565 3.68252 14.5216C4.38628 15.8868 5.51376 16.987 6.89578 17.657C8.2778 18.3271 9.83984 18.531 11.3475 18.238C12.8552 17.9451 14.2273 17.1711 15.2578 16.0323C16.2884 14.8934 16.9218 13.4511 17.0632 11.9217C17.2045 10.3924 16.8461 8.85838 16.0418 7.54996V7.56663ZM10.0001 16.6666C8.56418 16.6644 7.18771 16.093 6.17236 15.0777C5.15702 14.0623 4.58563 12.6859 4.58342 11.25H10.0001V5.83329C11.4367 5.83329 12.8144 6.40398 13.8302 7.4198C14.8461 8.43562 15.4168 9.81337 15.4168 11.25C15.4168 12.6865 14.8461 14.0643 13.8302 15.0801C12.8144 16.0959 11.4367 16.6666 10.0001 16.6666Z" fill="#141416"/>
</svg>

<svg xmlns="http://www.w3.org/2000/svg" width="20" height="20" fill="none" viewBox="0 0 20 20"><path fill="#141416" d="m16.042 7.567.833-.834-2.383-2.325-.834.834a7.1 7.1 0 0 0-2.825-1.025v-.884H12.5V1.667h-5v1.666h1.667v.884a7.1 7.1 0 1 0 6.875 3.333zM10 16.667a5.425 5.425 0 0 1-5.417-5.417H10V5.833a5.416 5.416 0 1 1 0 10.834"/></svg>
